X:433
T: O ICH BETRUEBTER FREIERSMANN
N: F0802
O: Europa, Mitteleuropa, Deutschland
R: Geselligkeits - Lied, national
M: 4/4
L: 1/8
K: C
G,2 | C3CC2C2 | E3EE2
E2 | G3DD2CD | E2z2
G4 | F2E2D2C2 | B,3E,E,2
E2 | E2E2E3^D | E4z2
B,2 | B,3B,B,2^C2 | D3DD2
F2 | A2G2F2E2 | D3DD2
G,2 | G3ED3F | E4z2

@@@ Tune index: 5864
